packages/core/src/svgs/thor.svg

<svg width="24" height="24" viewBox="0 0 24 24" fill="none" xmlns="http://www.w3.org/2000/svg">
<g clip-path="url(#clip0_31_19665)">
<path d="M0 0H24V24H0V0Z" fill="url(#paint0_linear_31_19665)"/>
<path d="M19.2857 12.0001C19.2857 13.9324 18.5181 15.7855 17.1518 17.1518C15.7855 18.5182 13.9323 19.2858 12 19.2858C10.0677 19.2858 8.21457 18.5182 6.84823 17.1518C5.48189 15.7855 4.71429 13.9324 4.71429 12.0001C4.71429 10.0678 5.48189 8.21463 6.84823 6.84829C8.21457 5.48196 10.0677 4.71436 12 4.71436C13.9323 4.71436 15.7855 5.48196 17.1518 6.84829C18.5181 8.21463 19.2857 10.0678 19.2857 12.0001ZM12 18.8572C13.8186 18.8572 15.5628 18.1348 16.8487 16.8488C18.1347 15.5628 18.8572 13.8187 18.8572 12.0001C18.8572 10.1814 18.1347 8.4373 16.8487 7.15134C15.5628 5.86537 13.8186 5.14293 12 5.14293C10.1814 5.14293 8.43724 5.86537 7.15128 7.15134C5.86531 8.4373 5.14287 10.1814 5.14287 12.0001C5.14287 13.8187 5.86531 15.5628 7.15128 16.8488C8.43724 18.1348 10.1814 18.8572 12 18.8572Z" fill="url(#paint1_linear_31_19665)"/>
<path d="M10.6114 9.433L12.1885 10.9587L15.69 7.23014L10.6114 9.42871V9.433ZM16.4657 6.42871L16.7143 6.763L12.2014 11.5716L9.85712 9.30014L16.4657 6.42871Z" fill="url(#paint2_linear_31_19665)"/>
<path d="M13.8429 13.7399L12.2271 12.1927L8.03143 16.547L13.8429 13.7399ZM7.28572 17.357L7.04572 17.0141L12.2143 11.5713L14.5714 13.877L7.28572 17.357Z" fill="url(#paint3_linear_31_19665)"/>
</g>
<defs>
<linearGradient id="paint0_linear_31_19665" x1="4.46571" y1="4.16143" x2="29.2071" y2="32.58" gradientUnits="userSpaceOnUse">
<stop stop-color="#1A1E21"/>
<stop offset="1" stop-color="#06060A"/>
</linearGradient>
<linearGradient id="paint1_linear_31_19665" x1="16.9286" y1="6.42864" x2="7.7143" y2="17.3572" gradientUnits="userSpaceOnUse">
<stop stop-color="#37FAF9"/>
<stop offset="1" stop-color="#08ACFC"/>
</linearGradient>
<linearGradient id="paint2_linear_31_19665" x1="16.3371" y1="6.62157" x2="11.2328" y2="10.7873" gradientUnits="userSpaceOnUse">
<stop stop-color="#3EFFFA"/>
<stop offset="1" stop-color="#29E0EE"/>
</linearGradient>
<linearGradient id="paint3_linear_31_19665" x1="8.20286" y1="16.7184" x2="13.3243" y2="12.737" gradientUnits="userSpaceOnUse">
<stop stop-color="#14AAFE"/>
<stop offset="1" stop-color="#1CD2F1"/>
</linearGradient>
<clipPath id="clip0_31_19665">
<rect width="24" height="24" fill="white"/>
</clipPath>
</defs>
</svg>

<svg xmlns="http://www.w3.org/2000/svg" width="24" height="24" fill="none" viewBox="0 0 24 24"><g clip-path="url(#a)"><path fill="url(#b)" d="M0 0h24v24H0z"/><path fill="url(#c)" d="M19.286 12a7.286 7.286 0 1 1-14.571 0 7.286 7.286 0 0 1 14.57 0M12 18.857a6.857 6.857 0 1 0 0-13.713 6.857 6.857 0 0 0 0 13.713"/><path fill="url(#d)" d="m10.611 9.433 1.577 1.526L15.69 7.23 10.611 9.43zm5.855-3.004.248.334-4.513 4.809L9.857 9.3z"/><path fill="url(#e)" d="m13.843 13.74-1.616-1.547-4.196 4.354zm-6.557 3.617-.24-.343 5.168-5.443 2.357 2.306z"/></g><defs><linearGradient id="b" x1="4.466" x2="29.207" y1="4.161" y2="32.58" gradientUnits="userSpaceOnUse"><stop stop-color="#1A1E21"/><stop offset="1" stop-color="#06060A"/></linearGradient><linearGradient id="c" x1="16.929" x2="7.714" y1="6.429" y2="17.357" gradientUnits="userSpaceOnUse"><stop stop-color="#37FAF9"/><stop offset="1" stop-color="#08ACFC"/></linearGradient><linearGradient id="d" x1="16.337" x2="11.233" y1="6.622" y2="10.787" gradientUnits="userSpaceOnUse"><stop stop-color="#3EFFFA"/><stop offset="1" stop-color="#29E0EE"/></linearGradient><linearGradient id="e" x1="8.203" x2="13.324" y1="16.718" y2="12.737" gradientUnits="userSpaceOnUse"><stop stop-color="#14AAFE"/><stop offset="1" stop-color="#1CD2F1"/></linearGradient><clipPath id="a"><path fill="#fff" d="M0 0h24v24H0z"/></clipPath></defs></svg>
